X:1
T:Nescis justitiam
T:Daniel Friderici
T:Source : Bicinia sacra---Rostock---J.Richelius---1642. Editor :  André Vierendeels (09/07/17).
T:Notes : Original clefs : C1, C1 Editorial accidentals above the staff 
T:Nescis justitiam
T:©
T:©
C:Daniel Friderici
Z:©
%%score [ 1 2 ]
L:1/8
Q:1/4=120
M:2/2
K:C
V:1 treble nm="Soprano 1" snm="S 1"
V:2 treble nm="Soprano 2" snm="S 2"
V:1
 G4 G4 | z4 z2 G2 | A2 G2 A2 B2 | c2 B2 c2 d2 | e2 d2 c2 B2 | c2 B2 A4 | BABc d2 d2 | G4 BABc | %8
w: Ne- scis,|ne-|scis ju- sti- ti-|am, ne- scis ju-|sti- ti- am, ju-|sti- ti- am|Fi- * * * * de-|i, Fi- * * *|
 d2 d2 G4 | z2 GG A2 G2 | z2 EE F2 E2 | z2 BB c2 B2 | z2 dd e2 d2 | z2 cc B2 e2 | d2 c3 B/A/ B2 | %15
w: * de- i,|Ni- co- de- me,|Ni- co- de- me,|Ni- co- de- me,|Ni- co- de- me,|Ni- co- de- me|Ma- gi- * * *|
 c8 :: z4 e4 | d2 c2 B2 A2 | G3 F E4 | z4 CB,CD | EDEF GFGA | BABc dcde | d2 c2 d4 | e8 :| %24
w: ster;|Ex|Chri- sti pen- det|mu- ne- re|ve- * * *|||* ra sa-|lus.|
V:2
 z8 | G4 G4 | z4 z2 G2 | A2 G2 A2 B2 | c2 B2 c2 d2 | e2 d2 c4 |"^#" GFGA BABc | d2 d2 G4 | %8
w: |Ne- scis,|ne-|scis ju- sti- ti-|am, ne- scis ju-|sti- ti- am|Fi- * * * * * * *|* de- i,|
 BABc d2 d2 | G4 z2 GG | A2 G2 z2 EE | F2 E2 z2 BB | c2 B2 z2 dd | e4 d2 c2 | B2 e2 d4 | c8 :: %16
w: Fi- * * * * de-|i, Ni- co-|de- me, Ni- co-|de- me, Ni- co-|de- me, Ni- co-|de- me, Ma-|gi- * *|ster;|
 z4 c4 | B2 A2 G2 F2 | E3 D C4 | CB,CD EDEF | GFGA BABc | dcde fedc | B2 c4 B2 | c8 :| %24
w: Ex|Chri- sti pen- det|mu- ne- re|ve- * * * * * * *|||ra sa- *|lus.|

